docs/logo.svg

<svg xmlns="http://www.w3.org/2000/svg" xmlns:xlink="http://www.w3.org/1999/xlink" width="192px" height="140px" viewBox="0 0 192 140" version="1.1">
    <!-- Generator: Sketch 52.6 (67491) - http://www.bohemiancoding.com/sketch -->
    <title>addons/console</title>
    <desc>Created with Sketch.</desc>
    <g id="addons/console" stroke="none" stroke-width="1" fill="none" fill-rule="evenodd">
        <rect id="Rectangle-49" fill="#2E1A5A" x="16" y="0" width="160" height="140" rx="4"/>
        <path d="M46.891189,44.5392574 C44.274496,42.1306312 44.2747092,38.1143317 46.8922328,35.7067913 C49.3664532,33.4307665 53.2824364,33.4311184 55.7561532,35.7075541 L84.9667328,62.586055 C86.2277169,63.7467717 86.9288972,65.3382715 86.9288972,67.0018078 C86.9288972,68.6653442 86.2277169,70.256844 84.9667328,71.4175607 L55.7601892,98.2925046 C53.2862407,100.568862 49.3707971,100.569214 46.8963069,98.2932323 C44.27848,95.8851045 44.2780535,91.8686343 46.8956315,89.4604272 L71.3024805,67.0018149 L46.891189,44.5392574 Z" id="Path" fill="#FFFFFF" fill-rule="nonzero"/>
        <path d="M98.6344865,88.5733273 L141.365531,88.5733273 C144.516641,88.5733273 147.07112,91.1312741 147.07112,94.2866615 C147.07112,97.4420488 144.516641,99.9999956 141.365531,99.9999956 L98.6344865,99.9999956 C95.4833766,99.9999956 92.9288972,97.4420488 92.9288972,94.2866615 C92.9288972,91.1312741 95.4833766,88.5733273 98.6344865,88.5733273 Z" id="Rectangle-7-Copy-8" fill-opacity="0.2" fill="#FFFFFF"/>
    </g>
</svg>

<svg xmlns="http://www.w3.org/2000/svg" width="192" height="140"><g fill="none" fill-rule="evenodd"><rect fill="#2E1A5A" x="16" width="160" height="140" rx="4"/><path d="M46.891 44.54c-2.617-2.41-2.616-6.426.001-8.833 2.474-2.276 6.39-2.276 8.864 0l29.21 26.88c1.262 1.16 1.963 2.751 1.963 4.415 0 1.663-.701 3.255-1.962 4.416L55.76 98.293c-2.474 2.276-6.39 2.276-8.864 0-2.618-2.408-2.618-6.424 0-8.833l24.406-22.458-24.41-22.463z" fill="#FFF" fill-rule="nonzero"/><path d="M98.634 88.573h42.732a5.71 5.71 0 0 1 5.705 5.714 5.71 5.71 0 0 1-5.705 5.713H98.634a5.71 5.71 0 0 1-5.705-5.713 5.71 5.71 0 0 1 5.705-5.714z" fill-opacity=".2" fill="#FFF"/></g></svg>
